packages/assets/static/images/icons/bug.svg

<svg width="24" height="24" viewBox="0 0 24 24" xmlns="http://www.w3.org/2000/svg">
<path d="M13.5 8.625C13.5 8.40249 13.566 8.18499 13.6896 7.99998C13.8132 7.81497 13.9889 7.67078 14.1945 7.58563C14.4 7.50048 14.6262 7.4782 14.8445 7.52161C15.0627 7.56502 15.2632 7.67217 15.4205 7.8295C15.5778 7.98684 15.685 8.18729 15.7284 8.40552C15.7718 8.62375 15.7495 8.84995 15.6644 9.05552C15.5792 9.26108 15.435 9.43678 15.25 9.5604C15.065 9.68402 14.8475 9.75 14.625 9.75C14.3266 9.75 14.0405 9.63147 13.8295 9.42049C13.6185 9.20951 13.5 8.92337 13.5 8.625ZM9.375 7.5C9.1525 7.5 8.93499 7.56598 8.74998 7.68959C8.56498 7.81321 8.42078 7.98891 8.33564 8.19448C8.25049 8.40004 8.22821 8.62624 8.27162 8.84447C8.31502 9.0627 8.42217 9.26316 8.5795 9.42049C8.73684 9.57783 8.93729 9.68497 9.15552 9.72838C9.37375 9.77179 9.59995 9.74951 9.80552 9.66436C10.0111 9.57921 10.1868 9.43502 10.3104 9.25001C10.434 9.06501 10.5 8.8475 10.5 8.625C10.5 8.32663 10.3815 8.04048 10.1705 7.8295C9.95952 7.61852 9.67337 7.5 9.375 7.5ZM20.25 13.5C20.2521 14.228 20.1575 14.9531 19.9688 15.6562L22.0538 16.5675C22.2091 16.6382 22.3356 16.7598 22.4125 16.9122C22.4894 17.0646 22.512 17.2386 22.4766 17.4056C22.4412 17.5726 22.3499 17.7225 22.2178 17.8305C22.0857 17.9386 21.9207 17.9984 21.75 18C21.6467 18.0002 21.5445 17.9788 21.45 17.9372L19.4419 17.0625C18.7701 18.4665 17.7148 19.6518 16.398 20.4815C15.0811 21.3112 13.5564 21.7515 12 21.7515C10.4436 21.7515 8.91889 21.3112 7.60205 20.4815C6.28521 19.6518 5.22994 18.4665 4.55813 17.0625L2.55 17.9372C2.45548 17.9788 2.35329 18.0002 2.25 18C2.07778 17.9999 1.91084 17.9405 1.77722 17.8318C1.64361 17.7232 1.55147 17.5718 1.51628 17.4032C1.48109 17.2347 1.50499 17.0591 1.58397 16.906C1.66295 16.753 1.7922 16.6318 1.95 16.5628L4.03125 15.6562C3.84251 14.9531 3.74794 14.228 3.75 13.5V12.75H1.5C1.30109 12.75 1.11032 12.671 0.96967 12.5303C0.829018 12.3897 0.75 12.1989 0.75 12C0.75 11.8011 0.829018 11.6103 0.96967 11.4697C1.11032 11.329 1.30109 11.25 1.5 11.25H3.75V10.5C3.74794 9.77197 3.84251 9.04689 4.03125 8.34375L1.95 7.43718C1.8576 7.39925 1.77371 7.34324 1.70325 7.27244C1.63279 7.20165 1.57719 7.11749 1.53969 7.02491C1.5022 6.93233 1.48358 6.8332 1.48492 6.73332C1.48626 6.63345 1.50753 6.53485 1.54749 6.44331C1.58746 6.35177 1.6453 6.26913 1.71763 6.20025C1.78997 6.13137 1.87533 6.07763 1.96871 6.04219C2.06209 6.00675 2.16162 5.99031 2.26144 5.99385C2.36126 5.99739 2.45936 6.02084 2.55 6.06281L4.55813 6.9375C5.22994 5.53352 6.28521 4.34824 7.60205 3.51853C8.91889 2.68882 10.4436 2.24854 12 2.24854C13.5564 2.24854 15.0811 2.68882 16.398 3.51853C17.7148 4.34824 18.7701 5.53352 19.4419 6.9375L21.45 6.06C21.6314 5.98554 21.8347 5.98505 22.0164 6.05864C22.1981 6.13223 22.3438 6.27405 22.4222 6.45373C22.5006 6.6334 22.5056 6.83664 22.436 7.01994C22.3665 7.20323 22.2279 7.35199 22.05 7.43437L19.9688 8.34843C20.1575 9.05158 20.2521 9.77666 20.25 10.5047V11.2547H22.5C22.6989 11.2547 22.8897 11.3337 23.0303 11.4744C23.171 11.615 23.25 11.8058 23.25 12.0047C23.25 12.2036 23.171 12.3944 23.0303 12.535C22.8897 12.6757 22.6989 12.7547 22.5 12.7547H20.25V13.5ZM5.25 11.25H18.75V10.5C18.75 8.70978 18.0388 6.9929 16.773 5.72703C15.5071 4.46115 13.7902 3.75 12 3.75C10.2098 3.75 8.4929 4.46115 7.22703 5.72703C5.96116 6.9929 5.25 8.70978 5.25 10.5V11.25ZM11.25 20.2069V12.75H5.25V13.5C5.25197 15.1596 5.86464 16.7605 6.9712 17.9975C8.07775 19.2344 9.60081 20.0208 11.25 20.2069ZM18.75 13.5V12.75H12.75V20.2069C14.3992 20.0208 15.9222 19.2344 17.0288 17.9975C18.1354 16.7605 18.748 15.1596 18.75 13.5Z"/>
</svg>

<svg viewBox="0 0 24 24" xmlns="http://www.w3.org/2000/svg" aria-hidden="true" fill="currentColor"><path d="M13.5 8.625a1.125 1.125 0 1 1 2.25 0 1.125 1.125 0 0 1-2.25 0M9.375 7.5a1.125 1.125 0 1 0 0 2.25 1.125 1.125 0 0 0 0-2.25m10.875 6a8.2 8.2 0 0 1-.281 2.156l2.085.911A.75.75 0 0 1 21.75 18a.7.7 0 0 1-.3-.063l-2.008-.875a8.25 8.25 0 0 1-14.884 0l-2.008.875a.75.75 0 0 1-.6-1.374l2.081-.907A8.2 8.2 0 0 1 3.75 13.5v-.75H1.5a.75.75 0 1 1 0-1.5h2.25v-.75a8.2 8.2 0 0 1 .281-2.156L1.95 7.437a.75.75 0 1 1 .6-1.374l2.008.875a8.25 8.25 0 0 1 14.884 0l2.008-.878a.75.75 0 0 1 .6 1.374l-2.081.914c.188.704.283 1.429.281 2.157v.75h2.25a.75.75 0 1 1 0 1.5h-2.25zm-15-2.25h13.5v-.75a6.75 6.75 0 0 0-13.5 0zm6 8.957V12.75h-6v.75a6.76 6.76 0 0 0 6 6.707m7.5-6.707v-.75h-6v7.457a6.76 6.76 0 0 0 6-6.707"/></svg>
